src/assets/notification-bell.svg

<svg fill="none" height="20" viewBox="0 0 20 20" width="20" xmlns="http://www.w3.org/2000/svg"><path d="m10.0004 2.05005c.414.0002.75.33591.75.75v.81055c1.3044.14775 2.5285.73266 3.4658 1.66992 1.093 1.09304 1.707 2.57632 1.707 4.12207 0 2.33791.2496 3.65231.4727 4.35551.1109.3494.2128.5404.2685.6289.0278.044.0448.0623.045.0625 0 0-.0046-.005-.0127-.0127-.0041-.0039-.0096-.0083-.0157-.0137-.003-.0027-.0062-.0058-.0097-.0088-.0017-.0014-.0041-.0034-.0059-.0049-.001-.0008-.0028-.0021-.0039-.0029.2458.1994.3403.5321.2354.831-.1056.3002-.3899.5009-.7081.501h-3.2392c-.0013.065-.0073.131-.0264.1963-.1787.6099-.5503 1.146-1.0586 1.5274-.4448.3336-.9744.5333-1.5254.5781l-.2373.0097c-.6355 0-1.25415-.2065-1.76267-.5878-.44477-.3336-.7846-.7855-.98242-1.3018l-.07617-.2256-.01758-.0752c-.0075-.0405-.00992-.0809-.01074-.1211h-3.25195c-.28668 0-.5481-.1633-.67383-.4209-.12527-.2571-.09348-.5633.08203-.789l-.00391.0039c-.00119.0015-.00214.0037-.00293.0049-.00125.0016-.00249.0033-.00293.0039.001-.0014.0053-.0075.01172-.0176.01461-.0231.04241-.0699.0791-.1426.07365-.1459.184-.4001.29883-.7891.23005-.7796.47751-2.1036.47754-4.18941.00005-1.54578.61402-3.02903 1.70703-4.12207.89197-.89185 2.04379-1.46486 3.27735-1.64551v-.83496c0-.41421.33578-.75.75003-.75zm-1.18949 13.68845c.10003.2049.24483.3855.42871.5235.24905.1866.5516.288.86228.288l.1162-.0048c.2694-.022.5283-.1199.7461-.2832.1841-.1382.3307-.3183.4307-.5235z" fill="#fedf85"/></svg>

<svg width="20" height="20" viewBox="0 0 20 20" fill="none" xmlns="http://www.w3.org/2000/svg">
<path d="M10.0004 2.05005C10.4144 2.05025 10.7504 2.38596 10.7504 2.80005V3.6106C12.0548 3.75835 13.2789 4.34326 14.2162 5.28052C15.3092 6.37356 15.9232 7.85684 15.9232 9.40259C15.9232 11.7405 16.1728 13.0549 16.3959 13.7581C16.5068 14.1075 16.6087 14.2985 16.6644 14.387C16.6922 14.431 16.7092 14.4493 16.7094 14.4495C16.7094 14.4495 16.7048 14.4445 16.6967 14.4368C16.6926 14.4329 16.6871 14.4285 16.681 14.4231C16.678 14.4204 16.6748 14.4173 16.6713 14.4143C16.6696 14.4129 16.6672 14.4109 16.6654 14.4094C16.6644 14.4086 16.6626 14.4073 16.6615 14.4065C16.9073 14.6059 17.0018 14.9386 16.8969 15.2375C16.7913 15.5377 16.507 15.7384 16.1888 15.7385H12.9496C12.9483 15.8035 12.9423 15.8695 12.9232 15.9348C12.7445 16.5447 12.3729 17.0808 11.8646 17.4622C11.4198 17.7958 10.8902 17.9955 10.3392 18.0403L10.1019 18.05C9.4664 18.05 8.84775 17.8435 8.33923 17.4622C7.89446 17.1286 7.55463 16.6767 7.35681 16.1604L7.28064 15.9348L7.26306 15.8596C7.25556 15.8191 7.25314 15.7787 7.25232 15.7385H4.00037C3.71369 15.7385 3.45227 15.5752 3.32654 15.3176C3.20127 15.0605 3.23306 14.7543 3.40857 14.5286L3.40466 14.5325C3.40347 14.534 3.40252 14.5362 3.40173 14.5374C3.40048 14.539 3.39924 14.5407 3.3988 14.5413C3.3998 14.5399 3.4041 14.5338 3.41052 14.5237C3.42513 14.5006 3.45293 14.4538 3.48962 14.3811C3.56327 14.2352 3.67362 13.981 3.78845 13.592C4.0185 12.8124 4.26596 11.4884 4.26599 9.40259C4.26604 7.85681 4.88001 6.37356 5.97302 5.28052C6.86499 4.38867 8.01681 3.81566 9.25037 3.63501V2.80005C9.25037 2.38584 9.58615 2.05005 10.0004 2.05005ZM8.81091 15.7385C8.91094 15.9434 9.05574 16.124 9.23962 16.262C9.48867 16.4486 9.79122 16.55 10.1019 16.55L10.2181 16.5452C10.4875 16.5232 10.7464 16.4253 10.9642 16.262C11.1483 16.1238 11.2949 15.9437 11.3949 15.7385H8.81091Z" fill="#FEDF85"/>
</svg>
